dist/svg/u2693.svg

<?xml version="1.0" encoding="UTF-8"?><svg id="Layer_1" xmlns="http://www.w3.org/2000/svg" viewBox="0 0 40 40"><rect x="0" y="0" width="40" height="40" style="fill:none;"/><rect x="0" y="0" width="40" height="40" style="fill:none;"/><g><path d="M26.41846,19.10547H13.58154c-.83252,0-1.50732-.6748-1.50732-1.50684s.6748-1.50684,1.50732-1.50684h12.83691c.83252,0,1.50732,.6748,1.50732,1.50684s-.6748,1.50684-1.50732,1.50684Z" style="fill:#8595aa;"/><path d="M20.00001,11.13547h-2.27106V28.77189c-.06919,2.16571-2.16154,2.3715-3.99359,2.3715-1.5976,0-5.08454-.86521-6.66385-3.79091-.21974-.40707-2.8245,.72328-2.61649,1.17789,1.43248,3.13069,5.56442,9.46963,15.54498,9.46963,9.98057,0,14.1125-6.33894,15.54498-9.46963,.20801-.45461-2.39675-1.58496-2.61649-1.17789-1.5793,2.9257-5.06625,3.79091-6.66385,3.79091-1.83205,0-3.9244-.20579-3.99359-2.3715V11.13547h-2.27106" style="fill:#abb7c7;"/><path d="M20.02587,2c-3.24066,0-5.86783,2.62717-5.86783,5.86783s2.62717,5.86783,5.86783,5.86783,5.86783-2.62717,5.86783-5.86783-2.62717-5.86783-5.86783-5.86783Zm0,8.75374c-1.59386,0-2.88591-1.29205-2.88591-2.88591s1.29205-2.88591,2.88591-2.88591,2.88591,1.29205,2.88591,2.88591-1.29205,2.88591-2.88591,2.88591Z" style="fill:#abb7c7; fill-rule:evenodd;"/><circle cx="27.96236" cy="17.59849" r="2.53837" style="fill:#abb7c7;"/><circle cx="12.15713" cy="17.59849" r="2.53837" style="fill:#abb7c7;"/><path d="M37.24763,22.32839l1.63365,5.39464c.3252,1.07389-.70764,2.062-1.76609,1.68961l-6.28527-2.21135c-1.05845-.37239-1.24504-1.78954-.31907-2.42323l4.65162-3.18329c.76436-.52308,1.81671-.15283,2.08515,.73362Z" style="fill:#abb7c7;"/><path d="M2.75237,22.32839l-1.63365,5.39464c-.3252,1.07389,.70764,2.062,1.76609,1.68961l6.28527-2.21135c1.05845-.37239,1.24504-1.78954,.31907-2.42323l-4.65162-3.18329c-.76436-.52308-1.81671-.15283-2.08515,.73362Z" style="fill:#abb7c7;"/></g></svg>

<svg id="Layer_1" data-name="Layer 1" xmlns="http://www.w3.org/2000/svg" viewBox="0 0 40 40"><defs><style>.cls-1,.cls-2{fill:none;}.cls-2{stroke:#8595aa;stroke-linecap:round;stroke-linejoin:round;stroke-width:3.014px;}.cls-3,.cls-4{fill:#abb7c7;}.cls-4{fill-rule:evenodd;}</style></defs><rect class="cls-1" width="40" height="40"/><rect class="cls-1" width="40" height="40"/><line class="cls-2" x1="13.581" y1="17.598" x2="26.419" y2="17.598"/><path class="cls-3" d="M20,11.135H17.729V28.772c-.069,2.166-2.162,2.371-3.994,2.371-1.6,0-5.084-.865-6.663-3.791-.22-.407-2.825.724-2.617,1.178C5.888,31.661,10.019,38,20,38s14.113-6.339,15.545-9.47c.208-.454-2.4-1.585-2.616-1.178-1.58,2.926-5.067,3.791-6.664,3.791-1.832,0-3.925-.205-3.994-2.371V11.135H20"/><path class="cls-4" d="M20.026,2a5.868,5.868,0,1,0,5.868,5.868A5.868,5.868,0,0,0,20.026,2Zm0,8.754a2.886,2.886,0,1,1,2.886-2.886A2.886,2.886,0,0,1,20.026,10.754Z"/><circle class="cls-3" cx="27.962" cy="17.598" r="2.538"/><circle class="cls-3" cx="12.157" cy="17.598" r="2.538"/><path class="cls-3" d="M37.248,22.328l1.633,5.4a1.37,1.37,0,0,1-1.766,1.69L30.83,27.2a1.37,1.37,0,0,1-.319-2.423L35.162,21.6A1.371,1.371,0,0,1,37.248,22.328Z"/><path class="cls-3" d="M2.752,22.328l-1.633,5.4a1.37,1.37,0,0,0,1.766,1.69L9.17,27.2a1.37,1.37,0,0,0,.319-2.423L4.838,21.6A1.371,1.371,0,0,0,2.752,22.328Z"/></svg>
